X: 2014
T: Road By Night
R: reel
C: Rick Gagne
N: 1987 on bouzouki
M: 4/4
Q: 1/8=360
K: Ador
ed | "Am"cA~A2 EA~A2 | "G"BAGB "Am"A2AB | "C"c2cd "Am"edcA | "Em"Beeg e2eg | 
"Am"ae~e2 "C"ce~e2 | "Em"Beeg e2ed | "Am"cA~A2 EA~A2 |1 "Em"BAGB "Am"A2 :|\
[2 "Em"BAGB "Am"A4 ||
"C"eage "Am"aged | "D"^cdef "Em"g2fe | "Bm"dB~B2 "G"GB~B2 | "Bm"dBBd "Em"e4 |
"D5"d'A~A2 "C"c'A~A2 | "Bm"bA~A2 "Am"a2ef | "Em"gfge "G"dBGB |1 "Am"cedB Ae~e2 :|\
[2 "Am"cedB A2 ||
